img/svg/ufo.svg

<svg fill="none" height="34" viewBox="0 0 34 34" width="34" xmlns="http://www.w3.org/2000/svg"><path d="m26.7147 17.1361c-.0441-1.2242-1.0449-2.1801-2.2406-2.1385-.5298.0189-1.0339.2418-1.4165.6158-1.6851-1.1788-3.6645-1.8249-5.6991-1.8702l.9603-4.74181 3.1678.68387c.0883.83504.8167 1.43954 1.6298 1.34884.8132-.0907 1.4018-.8388 1.3135-1.67378-.0883-.835-.8168-1.43953-1.6299-1.34885-.4672.04912-.8867.32871-1.1184.74433l-3.6278-.74433c-.2465-.05668-.493.10201-.5482.35894v.00755l-1.0927 5.27454c-2.0603.034-4.0655.6839-5.7727 1.8702-.86826-.8387-2.23693-.7972-3.05372.0983-.81678.8917-.77631 2.2972.09566 3.136.16925.1624.36425.3022.58132.4005-.01472.2229-.01472.4458 0 .6687 0 3.4043 3.86314 6.1738 8.62774 6.1738s8.6278-2.7657 8.6278-6.1738c.0147-.2229.0147-.4458 0-.6687.7432-.3816 1.2104-1.1675 1.1957-2.0214zm-14.8015 1.5226c0-.8387.666-1.5226 1.4828-1.5226.8167 0 1.4827.6839 1.4827 1.5226 0 .8388-.666 1.5227-1.4827 1.5227-.8205-.0076-1.4828-.6839-1.4828-1.5227zm8.5984 4.2393c-1.0523.8123-2.34 1.1675-3.6572 1.1108-1.3171.0567-2.6049-.3589-3.6571-1.1712-.1398-.1738-.1141-.4346.0552-.5781.1471-.1247.3569-.1247.5077 0 .8904.6687 1.9757 1.0088 3.0795.9559 1.1038.0604 2.1928-.2645 3.0942-.9257.1619-.1625.4268-.1587.585.0076.1582.1662.1545.4382-.0073.6007zm-.276-2.607c-.8168 0-1.4717-.7406-1.4717-1.5794 0-.8387.666-1.5226 1.4828-1.5226.8167 0 1.4827.6839 1.4827 1.5226.0331.8388-.6034 1.5454-1.4202 1.5794-.0257 0-.0478 0-.0736 0z" fill="#fff"/><circle cx="17" cy="17" r="16.5" stroke="#fff"/></svg>

<svg width="34" height="34" viewBox="0 0 34 34" fill="none" xmlns="http://www.w3.org/2000/svg">
<path d="M26.7147 17.1361C26.6706 15.9119 25.6698 14.956 24.4741 14.9976C23.9443 15.0165 23.4402 15.2394 23.0576 15.6134C21.3725 14.4346 19.3931 13.7885 17.3585 13.7432L18.3188 9.00139L21.4866 9.68526C21.5749 10.5203 22.3033 11.1248 23.1164 11.0341C23.9296 10.9434 24.5182 10.1953 24.4299 9.36032C24.3416 8.52532 23.6131 7.92079 22.8 8.01147C22.3328 8.06059 21.9133 8.34018 21.6816 8.7558L18.0538 8.01147C17.8073 7.95479 17.5608 8.11348 17.5056 8.37041C17.5056 8.37419 17.5056 8.37419 17.5056 8.37796L16.4129 13.6525C14.3526 13.6865 12.3474 14.3364 10.6402 15.5227C9.77194 14.684 8.40327 14.7255 7.58648 15.621C6.7697 16.5127 6.81017 17.9182 7.68214 18.757C7.85139 18.9194 8.04639 19.0592 8.26346 19.1575C8.24874 19.3804 8.24874 19.6033 8.26346 19.8262C8.26346 23.2305 12.1266 26 16.8912 26C21.6558 26 25.519 23.2343 25.519 19.8262C25.5337 19.6033 25.5337 19.3804 25.519 19.1575C26.2622 18.7759 26.7294 17.99 26.7147 17.1361ZM11.9132 18.6587C11.9132 17.82 12.5792 17.1361 13.396 17.1361C14.2127 17.1361 14.8787 17.82 14.8787 18.6587C14.8787 19.4975 14.2127 20.1814 13.396 20.1814C12.5755 20.1738 11.9132 19.4975 11.9132 18.6587ZM20.5116 22.898C19.4593 23.7103 18.1716 24.0655 16.8544 24.0088C15.5373 24.0655 14.2495 23.6499 13.1973 22.8376C13.0575 22.6638 13.0832 22.403 13.2525 22.2595C13.3996 22.1348 13.6094 22.1348 13.7602 22.2595C14.6506 22.9282 15.7359 23.2683 16.8397 23.2154C17.9435 23.2758 19.0325 22.9509 19.9339 22.2897C20.0958 22.1272 20.3607 22.131 20.5189 22.2973C20.6771 22.4635 20.6734 22.7355 20.5116 22.898ZM20.2356 20.291C19.4188 20.291 18.7639 19.5504 18.7639 18.7116C18.7639 17.8729 19.4299 17.189 20.2467 17.189C21.0634 17.189 21.7294 17.8729 21.7294 18.7116C21.7625 19.5504 21.126 20.257 20.3092 20.291C20.2835 20.291 20.2614 20.291 20.2356 20.291Z" fill="white"/>
<circle cx="17" cy="17" r="16.5" stroke="white"/>
</svg>
